X:1
T:Sonatina No.1
T:Muzio Clementi
%%score { 1 2 }
L:1/8
Q:1/4=156
M:2/2
K:C
V:1 treble nm="Piano, upper"
V:2 bass nm="Piano, lower"
V:1
 c2 ec G2 G2 | c2 ec G2 g2 | fedc BcBc | dcBA .G4 | c2 ec G2 G2 | e2 ge c2 ec | dBcA BGA^F | %7
 GABc de^fg | A2 a2 a2 a2 | Bcde ^fgab | c2 c'2 c'2 c'2 | dgbd' c'bag | ^fegf agfe | edcB dcBA | %14
 G4 z4 | B2 dB G2 G2 | c2 _ec G2 g2 | f2 d2 _e2 c2 | BcdB G2 G2 | gGgG gGgG | gGgG gGgG | %21
 d_efd fedc | .[Bg]4 z4 | C2 EC G,2 G,2 | C2 EC G,2 G2 | FEDC B,CB,C | DCB,A, .G,4 | C2 G,C E2 E2 | %28
 E2 CE G2 c2 | [EG]2 [DF]2 [CE]2 [B,D]2 | CDEF GABc | C2 d2 d2 d2 | EFGA Bcde | F2 f2 f2 f2 | %34
 Gceg fedc | agfe dcBA | GAFG EFDE | .C4 z4 |] %38
V:2
 .C,4 z4 | .C,4 z4 | .C,4 .C,4 | .G,,4 G,F,E,D, | .C,4 z4 | .C4 z2 ^F,2 | G,2 C,2 D,2 D,,2 | %7
 .G,,4 z4 | ^F,DA,D F,DA,D | .G,4 z4 | A,DCD A,DCD | .B,4 z4 |[K:bass] .C4 .C,4 | .D,4 .D,,4 | %14
 G,,B,,D,G, .D,,4 | F8 | _E8 | B,4 C4 | G,4 z4 | F2 G,2 D2 G,2 | _E2 G,2 C2 G,2 | .B,4 .C4 | %22
 G,2 G,,2 G,F,E,D, | .C,4 z4 | .C,4 z4 | .C,4 .C,4 | .G,,4 G,,F,,E,,D,, | .C,,4 z4 | .C,4 z4 | %29
 .G,4 .G,,4 | .C,4 z4 | B,,G,D,G, B,,G,D,G, | .C,4 z4 | D,G,F,G, D,G,F,G, | .E,4 z4 | .F,4 .F,4 | %36
 .G,4 .G,,4 | C,,E,,G,,C, .C,,4 |] %38

